X: 1
T: Paddy's Green Shamrock Shore
R: waltz
M: 3/4
L: 1/8
K: Fmaj
C2|"C"G2A2B2|G4 C2|G2E2G2|"F"F2E2C2|"Bb"B,2A,2B,2|"C"C4 C2|
C6-|C4 A2|"F"A2G2F2|"C"G4c2|"C7"c4B2|G4 BB|B2A2G2|
"F"F2C2D2|"Bb"B,6-|B,4 A2|"F"A2G2F2|"C"G4 A=B|"C7"c4 B2|
G4 cc|"Bb"B2A2G2|"F"F2C2D2|"Bb"B,6-|B,4 C2|"C7"G2A2B2|
G4C2|"C"G2E2G2|"F"F2E2C2|"Bb"B,2A,2B,2|"F"C4 C2|"C"C6||


Tune 5936	Setting 25237

